!!!!SEGMENT: pl-cz--iii-319--001-004_just-franciszek-kasper--missa-in-g-sanctus.krn
!!!cenid: 17xx:904
!!!COM: Just, Franciszek Kasper
!!!COM-rismID: pe30098311
!!!CDT: 1717-1760
!!!CNT: Czech
!!!OPR: Missa in G
!!!OTL: Sanctus
!!!OMV: 004
!!!PDT: 1755
!!!AGN: Sacred; Mass
!!!YEC: Copyright 2022 Narodowy Instytut Fryderyka Chopina (https://polishscores.org)
!!!YEM: License CC-BY-4.0 (https://creativecommons.org/licenses/by/4.0)
!!!SMS-siglum: PL-CZ
!!!SMS-shelfmark: III-319
!!!SMS-shelfwork: 001-004 M
!!!SMS-variant: Organo: PL-CZ III-319:29
!!!SMS-altvar: Organo: PL-CZ III-319:31
!!!NIFC-rismSourceID: 300000544
!!!NIFC-rismChildID: 300000544
!!!NIFC-islandoraID: pl-cz:37529
!!!URL-pdf-islandora: https://repozytorium.nifc.pl/islandora/object/pl-cz%3A37529/datastream/PDF/view
!!!URL-scan: https://polish.musicsources.pl/pl/lokalizacje/galeria/rekopisy/6899/1 @EN{Scan on Polish Music Sources Website} @PL{Skany w portalu Dziedzictwo Muzyki Polskiej w otwartym dostępie}
!!!IIIF:
!!!ONB-nifc: UWAGA: części Mszy: Kyrie, Gloria, Patrem, Sanctus, Osanna
!!!OMD:
!!!OMD-mod: Adagio
!!!AIN: 1 alto 1 bass 2 cor 1 organ 1 soprn 1 tenor 1 tuba 1 viola 2 violn
!!!key: G
**kern	**kern	**kern	**kern	**kern	**text	**mod-text	**kern	**text	**mod-text	**kern	**text	**mod-text	**kern	**text	**mod-text	**kern	**kern	**kern
*part11	*part10	*part9	*part8	*part7	*part7	*part7	*part6	*part6	*part6	*part5	*part5	*part5	*part4	*part4	*part4	*part3	*part2	*part1
*staff11	*staff10	*staff9	*staff8	*staff7	*staff7	*staff7	*staff6	*staff6	*staff6	*staff5	*staff5	*staff5	*staff4	*staff4	*staff4	*staff3	*staff2	*staff1
*I"Organo.	*I"Alto Viola	*I"Violino Secundo	*I"Violino Primo	*I"Baſso.	*	*	*I"Tenore.	*	*	*I"Alto.	*	*	*I"Canto.	*	*	*I"Tuba Pastorali.	*I"Corno Secundo ex G.	*I"Corno Primo ex G.
*mI"Organo	*mI"Viola	*mI"Violino II	*mI"Violino I	*mI"Basso	*	*	*mI"Tenore	*	*	*mI"Alto	*	*	*mI"Soprano	*	*	*mI"Tuba Pastorali	*mI"Corno II in G	*mI"Corno I in G
*I'org	*I'a-vla	*I'vl 2	*I'vl 1	*I'B	*	*	*I'T	*	*	*I'A	*	*	*I'S	*	*	*I'tb	*I'cor 2 in G	*I'cor 1 in G
*Iorgan	*Iviola	*Ivioln	*Ivioln	*Ibass	*	*	*Itenor	*	*	*Ialto	*	*	*Isoprn	*	*	*Ituba	*Icor	*Icor
*ICklav	*ICstr	*ICstr	*ICstr	*ICvox	*	*	*ICvox	*	*	*ICvox	*	*	*ICvox	*	*	*ICbras	*ICbras	*ICbras
!	!LO:MO:mod=*tacet	!	!	!	!	!	!	!	!	!	!	!	!	!	!	!LO:MO:mod=*tacet	!	!
*	*null	*	*	*	*	*	*	*	*	*	*	*	*	*	*	*null	*	*
*clefF4	*clefC3	*clefG2	*clefG2	*clefF4	*	*	*clefC4	*	*	*clefC3	*	*	*clefC1	*	*	*clefF4	*clefG2	*clefG2
*	*	*	*	*	*	*	*mclefGv2	*	*	*mclefG2	*	*	*mclefG2	*	*	*	*	*
*	*	*	*	*	*	*	*	*	*	*	*	*	*	*	*	*	*ITrd3c5	*ITrd3c5
*k[f#]	*k[f#]	*k[f#]	*k[f#]	*k[f#]	*	*	*k[f#]	*	*	*k[f#]	*	*	*k[f#]	*	*	*k[f#]	*k[f#]	*k[f#]
*G:	*G:	*G:	*G:	*G:	*	*	*G:	*	*	*G:	*	*	*G:	*	*	*G:	*G:	*G:
*M4/4	*M4/4	*M4/4	*M4/4	*M4/4	*	*	*M4/4	*	*	*M4/4	*	*	*M4/4	*	*	*M4/4	*M4/4	*M4/4
*met(C.)	*met(c)	*met(c)	*met(C.)	*met(c)	*	*	*met(c)	*	*	*met(c)	*	*	*met(c)	*	*	*met(c)	*met(C.)	*met(C.)
*mmet(c)	*mmet(c)	*mmet(c)	*mmet(c)	*mmet(c)	*	*	*mmet(c)	*	*	*mmet(c)	*	*	*mmet(c)	*	*	*mmet(c)	*mmet(c)	*mmet(c)
=1	=1	=1	=1	=1	=1	=1	=1	=1	=1	=1	=1	=1	=1	=1	=1	=1	=1	=1
!LO:TX:a:Bi:mod= :t=Adagio	!LO:TX:t=P:problem=partia wyłącznie w części "Domine Deus"	!	!	!	!	!	!	!	!	!LO:TX:a:Bi:mod= :t=Adagio.	!	!	!	!	!	!LO:TX:t=P:problem=zgodnie z RISM "tb pastoralis missing"	!LO:TX:a:Bi:mod= :t=Adagio	!
8GG/L	1ryy	4r	8g/L	4G\	San-	San-	4r	.	.	4r	.	.	8g\L	San-	San-	1ryy	8g\L	8g\L
8GG/	.	.	8b/	.	.	.	.	.	.	.	.	.	8b\	.	.	.	8g\	8b\
8BB/	.	8g/L	8dd/	8GG/L	.	.	4B\	San-	San-	4g\	San-	San-	8dd\	.	.	.	8b\	8dd\
8C/J	.	8b/J	8gg/J	8C/J	.	.	.	.	.	.	.	.	8gg\J	.	.	.	8g\J	8b\J
*	*	*	*	*	*	*	*2\right	*	*	*2\right	*	*	*	*	*	*	*	*
8D\L	.	8dd\L	16gg\LL	4D\	.	.	2d\	.	.	2a\	-ct(us),	-ctus	16gg\LL	.	.	.	8d/L	8a\L
.	.	.	16ff#\	.	.	.	.	.	.	.	.	.	16ff#\	.	.	.	.	.
8D\	.	8dd\	16aa\	.	.	.	.	.	.	.	.	.	16aa\	.	.	.	8d/	8a\
.	.	.	16gg\JJ	.	.	.	.	.	.	.	.	.	16gg\JJ	.	.	.	.	.
8E\	.	8dd\	16ff#\LL	8E\L	.	.	.	.	.	.	.	.	16ff#\LL	.	.	.	8d/	8a\
.	.	.	16ee\	.	.	.	.	.	.	.	.	.	16ee\	.	.	.	.	.
8F#\J	.	8dd\J	16dd\	8F#\J	.	.	.	.	.	.	.	.	16dd\	.	.	.	8d/J	8a\J
.	.	.	16cc\JJ	.	.	.	.	.	.	.	.	.	16cc\JJ	.	.	.	.	.
=2	=2	=2	=2	=2	=2	=2	=2	=2	=2	=2	=2	=2	=2	=2	=2	=2	=2	=2
*	*	*	*	*	*	*	*	*	*	*	*ij	*ij	*	*	*	*	*	*
!LO:TX:t=P:problem=mixed beam	!	!	!	!	!	!	!	!	!	!	!	!	!	!	!	!	!	!
8G\L	1ryy	16dd\LL	4b\	4G\	.	.	16d\LL	.	.	4a\	San-	San-	4b\	.	.	1ryy	4g\	4b\
.	.	16b\	.	.	.	.	16B\	.	.	.	.	.	.	.	.	.	.	.
8GG/	.	16dd\	.	.	.	.	16d\	.	.	.	.	.	.	.	.	.	.	.
.	.	16cc\JJ	.	.	.	.	16c\JJ	.	.	.	.	.	.	.	.	.	.	.
8AA/	.	16b/LL	4dd\	8A\L	.	.	16B\LL	.	.	4g\	-ctus,	-ctus	4dd,<\	-ct(us),	-ctus	.	4g\	4dd\
*	*	*	*	*	*	*	*	*	*	*	*Xij	*Xij	*	*	*	*	*	*
.	.	16a/	.	.	.	.	16A\	.	.	.	.	.	.	.	.	.	.	.
8BB/J	.	16g/	.	8B\J	.	.	16G\	.	.	.	.	.	.	.	.	.	.	.
.	.	16f#/JJ	.	.	.	.	16F#\JJ	.	.	.	.	.	.	.	.	.	.	.
*	*	*	*	*	*	*	*	*	*	*	*	*	*	*ij	*ij	*	*	*
8C/L	.	4e/	16dd\LL	4c\	.	.	4E,</	-ct(us),	-ctus	2g\	San-	San-	16dd\LL	San-	San-	.	4g\	4dd\
.	.	.	16cc\	.	.	.	.	.	.	.	.	.	16cc\JJ	.	.	.	.	.
8C/	.	.	16ee\	.	.	.	.	.	.	.	.	.	16ee\LL	.	.	.	.	.
.	.	.	16dd\JJ	.	.	.	.	.	.	.	.	.	16dd\JJ	.	.	.	.	.
8C/	.	4ee\	16cc\LL	4C/	.	.	4e\	San-	San-	.	.	.	16cc\LL	.	.	.	4g\	8cc\L
.	.	.	16b\	.	.	.	.	.	.	.	.	.	16b\	.	.	.	.	.
8C/J	.	.	16a\	.	.	.	.	.	.	.	.	.	16a\	.	.	.	.	8ee\J
.	.	.	16g\JJ	.	.	.	.	.	.	.	.	.	16g\JJ	.	.	.	.	.
=3	=3	=3	=3	=3	=3	=3	=3	=3	=3	=3	=3	=3	=3	=3	=3	=3	=3	=3
*	*	*	*	*2\right	*	*	*	*	*	*	*	*	*	*	*	*	*	*2\right
8D\L	2ryy	16ee\LL	4f#/	2D\	.	.	16e\LL	.	.	2f#\	.	.	4f#/	.	.	2ryy	4g\	2dd\
.	.	16dd\	.	.	.	.	16d\	.	.	.	.	.	.	.	.	.	.	.
8D\	.	16ff#\	.	.	.	.	16f#\	.	.	.	.	.	.	.	.	.	.	.
.	.	16ee\JJ	.	.	.	.	16e\JJ	.	.	.	.	.	.	.	.	.	.	.
8D\	.	16dd\LL	4ff#\	.	.	.	16d\LL	.	.	.	.	.	4ff#,<\	-ctus,	-ctus	.	4a\	.
.	.	16cc\	.	.	.	.	16c\	.	.	.	.	.	.	.	.	.	.	.
8D\J	.	16b\	.	.	.	.	16B\	.	.	.	.	.	.	.	.	.	.	.
.	.	16a\JJ	.	.	.	.	16A\JJ	.	.	.	.	.	.	.	.	.	.	.
!	!	!	!	!	!	!	!LO:LB:g=original	!	!	!	!	!	!	!	!	!	!	!
8E\L	2ryy	4g/	16ff#\LL	2E\	.	.	4G/	.	.	2g\	.	.	16ff#\LL	San-	San-	2ryy	4b\	2ee\
.	.	.	16ee\	.	.	.	.	.	.	.	.	.	16ee\	.	.	.	.	.
8E\	.	.	16gg\	.	.	.	.	.	.	.	.	.	16gg\	.	.	.	.	.
.	.	.	16ff#\JJ	.	.	.	.	.	.	.	.	.	16ff#\JJ	.	.	.	.	.
8E\	.	4gg\	16ee\LL	.	.	.	4g\	.	.	.	.	.	16ee\LL	.	.	.	4cc\	.
.	.	.	16dd\	.	.	.	.	.	.	.	.	.	16dd\	.	.	.	.	.
8E\J	.	.	16cc\	.	.	.	.	.	.	.	.	.	16cc\	.	.	.	.	.
.	.	.	16b\JJ	.	.	.	.	.	.	.	.	.	16b\JJ	.	.	.	.	.
=4	=4	=4	=4	=4	=4	=4	=4	=4	=4	=4	=4	=4	=4	=4	=4	=4	=4	=4
*	*	*	*	*	*	*	*	*	*	*	*	*	*	*	*	*	*2\right	*
!	!	!	!LO:TX:t=P:problem=mixed beam	!	!	!	!	!	!	!	!	!	!	!	!	!	!	!
8F#\L	1ryy	16gg\LL	8a/L	2F#\	.	.	16g\LL	.	.	2a\	.	.	4a\	.	.	1ryy	2a\	2dd\
.	.	16ff#\	.	.	.	.	16f#\	.	.	.	.	.	.	.	.	.	.	.
8F#\	.	16aa\	8aa\J	.	.	.	16a\	.	.	.	.	.	.	.	.	.	.	.
.	.	16gg\JJ	.	.	.	.	16g\JJ	.	.	.	.	.	.	.	.	.	.	.
!	!	!	!LO:TX:t=P:problem=mixed beam	!	!	!	!	!	!	!	!	!	!	!	!	!	!	!
8F#\	.	16ff#\LL	8a/L	.	.	.	16f#\LL	.	.	.	.	.	4aa\	.	.	.	.	.
.	.	16ee\	.	.	.	.	16e\	.	.	.	.	.	.	.	.	.	.	.
8F#\J	.	16dd\	8aa\J	.	.	.	16d\	.	.	.	.	.	.	.	.	.	.	.
.	.	16cc\JJ	.	.	.	.	16c\JJ	.	.	.	.	.	.	.	.	.	.	.
!LO:TX:t=P:problem=mixed beam	!	!	!LO:TX:t=P:problem=mixed beam	!	!	!	!	!	!	!	!	!	!	!	!	!	!	!
8G\L	.	8b/L	8gg\L	8G\	.	.	4B\	-ct(us)	-ctus	8g\	.	.	8gg\	-ctus	-ctus	.	4b\	4dd\
*	*	*	*	*	*	*	*	*	*	*	*	*	*	*Xij	*Xij	*	*	*
8D\	.	8g/	8g/	8GG/	-ct(us)	-ctus	.	.	.	8g\	-ctus	-ctus	(8g\L	San-	San-	.	.	.
8DD/	.	8b/	8b/	4r	.	.	4r	.	.	4r	.	.	8b\J)	.	.	.	4r	4r
8GG/J	.	8dd/J	8dd/J	.	.	.	.	.	.	.	.	.	8dd\	-ct(us)	-ctus	.	.	.
=5	=5	=5	=5	=5	=5	=5	=5	=5	=5	=5	=5	=5	=5	=5	=5	=5	=5	=5
*	*	*2\right	*2\right	*	*	*	*	*	*	*	*	*	*	*	*	*	*	*
8r	2ryy	2ee\	2gg\	8r	.	.	8r	.	.	8r	.	.	4gg\	Do-	Do-	2ryy	8r	8r
8e\L	.	.	.	8d\	Do-	Do-	8e\	Do-	Do-	8a\	Do-	Do-	.	.	.	.	8a\L	8ee\L
8B\	.	.	.	8B\	-mi-	-mi-	8e\	-mi-	-mi-	8a\	-mi-	-mi-	8gg\	-mi-	-mi-	.	8a\	8cc#X\
8c#X\J	.	.	.	8c#X\	-nus	-nus	8e\	-n(us)	-nus	8a\	-nus	-nus	8gg\	-n(us)	-nus	.	8a\J	8cc#\J
!LO:TX:t=P:problem=mixed beam	!	!LO:TX:t=P:problem=mixed beam	!	!	!	!	!	!	!	!	!	!	!	!	!	!	!	!
!LO:LB:g=original	!	!	!	!	!	!	!	!	!	!	!	!	!	!	!	!	!	!
8d\L	8ryy	8ee\L	8ff#\L	8d\	De-	De-	8d\	De-	De-	8a\	De-	De-	8ff#\	De-	De-	8ryy	8a\L	8dd\L
!	!	!	!	!	!	!	!	!	!	!	!	!	!LO:LB:g=original	!	!	!	!	!
8G\	4.ryy	8g/	16gg\L	8G\	-us	-us	8e\	-us	-us	8b\	-us	-us	16gg\LL	-us	-us	4.ryy	8b\	8ee\
.	.	.	16ee\JJ	.	.	.	.	.	.	.	.	.	16ee\JJ	.	.	.	.	.
8A\	.	8f#/	8dd\L	8A\	Sa-	Sa-	8f#\	Sa-	Sa-	8.a\	Sa-	Sa-	8dd\	Sa-	Sa-	.	8a\	8dd\
8AA/J	.	8e/J	8cc#X\J	8AA/	-ba-	-ba-	8e\	-ba-	-ba-	.	.	.	8cc#X\	-ba-	-ba-	.	8a\J	8cc#\J
.	.	.	.	.	.	.	.	.	.	16a\	-ba-	-ba-	.	.	.	.	.	.
=6	=6	=6	=6	=6	=6	=6	=6	=6	=6	=6	=6	=6	=6	=6	=6	=6	=6	=6
!	!	!	!LO:TX:t=P:problem=mixed beam	!	!	!	!	!	!	!	!	!	!	!	!	!	!	!
4D/	1ryy	8f#/L	8dd\L	4D/	-oth	-oth	4f#\	-oth	-oth	4a\	-oth	-oth	8dd\	-oth	-oth	1ryy	4a\	4dd\
.	.	8d/	8d/	.	.	.	.	.	.	.	.	.	8d/	Do-	Do-	.	.	.
4r	.	8f#/	8f#/	4r	.	.	4r	.	.	4r	.	.	8f#/	-mi-	-mi-	.	4r	4r
.	.	8a/J	8a/J	.	.	.	.	.	.	.	.	.	8a\	-n(us)	-nus	.	.	.
*	*	*	*	*	*	*	*	*	*	*	*	*	*2\right	*	*	*	*	*
!	!	!	!	!	!	!	!	!	!	!	!	!	!LO:SIC:s=(2cc	!	!	!	!	!
8r	.	2ccn\	2ccn\	8r	.	.	8r	.	.	8r	.	.	2cc\	De-	De-	.	8r	8r
8A\L	.	.	.	8A\	Do-	Do-	8d\	Do-	Do-	8a\	Do-	Do-	.	.	.	.	8a\L	8dd\L
8E\	.	.	.	8E\	-mi-	-mi-	8d\	-mi-	-mi-	8a\	-mi-	-mi-	.	.	.	.	8a\	8dd\
8F#\J	.	.	.	8F#\	-nus	-nus	8d\	-nus	-nus	8a\	-n(us)	-nus	.	.	.	.	8a\J	8dd\J
!	!	!	!	!LO:PB:g=original	!	!	!	!	!	!LO:LB:g=original	!	!	!	!	!	!	!	!
=7	=7	=7	=7	=7	=7	=7	=7	=7	=7	=7	=7	=7	=7	=7	=7	=7	=7	=7
*	*	*	*	*	*	*	*	*	*	*	*	*	*	*	*	*	*^	*
!LO:TX:t=P:problem=mixed beam	!	!	!	!	!	!	!	!	!	!	!	!	!LO:SIC:s=8b)	!	!	!	!	!	!
8G\L	1ryy	8b/L	8b/L	8G\	De-	De-	8d\	De-	De-	8g\	De-	De-	8b\	.	.	1ryy	8b\L	2ryyyy	8dd\L
8C\	.	8c/	16cc/L	8C/	-us	-us	8e\	-us	-us	8a\	-us	-us	16cc\LL	-us	-us	.	8a\	.	8cc\
.	.	.	16a/JJ	.	.	.	.	.	.	.	.	.	16b\JJ	.	.	.	.	.	.
8D\	.	8B/	8g/L	8.D/	Sa-	Sa-	8.d\	Sa-	Sa-	8.g\	Sa-	Sa-	8g/	Sa-	Sa-	.	8g\	.	8b\
8DD/J	.	8A/J	8f#/J	.	.	.	.	.	.	.	.	.	8f#/	-ba-	-ba-	.	8d\J	.	8a\J
.	.	.	.	16D/	-ba-	-ba-	16c\	-ba-	-ba-	16f#\	-ba-	-ba-	.	.	.	.	.	.	.
!	!	!	!	!	!	!	!	!	!	!	!	!	!	!	!	!	!LO:SIC:v:s=4d	!	!
4GG/	.	8B/L	8g/L	4GG/	-oth	-oth	4B\	-oth	-oth	4g\	-oth	-oth	8g/	-oth	-oth	.	4c/	4B\	4b\
!	!	!	!LO:SIC:s=8g	!	!	!	!	!	!	!	!	!	!LO:SIC:s=(8gL	!	!	!	!	!	!
.	.	8g/	8g/J	.	.	.	.	.	.	.	.	.	(8g\	San-	San-	.	.	.	.
!	!	!	!LO:SIC:s=8b	!	!	!	!	!	!	!	!	!	!LO:SIC:s=8bJ)	!	!	!	!	!	!
4r	.	8b/	8b/L	4r	.	.	4r	.	.	4r	.	.	8b\)	.	.	.	4r	4ryy	4r
.	.	8dd/J	8dd/J	.	.	.	.	.	.	.	.	.	8dd\	-ctus	-ctus	.	.	.	.
*	*	*	*	*	*	*	*	*	*	*	*	*	*	*	*	*	*v	*v	*
!	!	!	!LO:LB:g=original	!	!	!	!	!	!	!	!	!	!	!	!	!	!	!
=8	=8	=8	=8	=8	=8	=8	=8	=8	=8	=8	=8	=8	=8	=8	=8	=8	=8	=8
8r	2ryy	2ee\	2gg\	8r	.	.	8r	.	.	8r	.	.	4gg\	Do-	Do-	2ryy	8r	8r
8e\L	.	.	.	8e\	Do-	Do-	8e\	Do-	Do-	8a\	Do-	Do-	.	.	.	.	8a\L	8ee\L
8B\	.	.	.	8B\	-mi-	-mi-	8e\	-mi-	-mi-	8a\	-mi-	-mi-	8gg\	-mi-	-mi-	.	8a\	8cc#X\
8c#X\J	.	.	.	8c#X\	-nus	-nus	8e\	-nus	-nus	8a\	-n(us)	-nus	8gg\	-nus	-nus	.	8a\J	8cc#\J
!LO:TX:t=P:problem=mixed beam	!	!LO:TX:t=P:problem=mixed beam	!	!	!	!	!	!	!	!	!	!	!	!	!	!	!	!
!	!	!LO:LB:g=original	!	!	!	!	!	!	!	!	!	!	!	!	!	!	!	!
8d\L	2ryy	8dd\L	8ff#\L	8d\	De-	De-	8f#\	De-	De-	8a\	De-	De-	8ff#\	De-	De-	2ryy	8a\L	8dd\L
8G\	.	8g/	16gg\L	8G\	-us	-us	8g\	-us	-us	8b\	-us	-us	16gg\LL	-us	-us	.	8b\	8ee\
.	.	.	16ee\JJ	.	.	.	.	.	.	.	.	.	16ee\JJ	.	.	.	.	.
8A\	.	8f#/	8dd\L	8A\	Sa-	Sa-	8f#\	Sa-	Sa-	8.a\	Sa-	Sa-	8dd\	Sa-	Sa-	.	8a\	8dd\
8AA/J	.	8e/J	8cc#X\J	8AA/	-ba-	-ba-	8e\	-ba-	-ba-	.	.	.	8cc#X\	-ba-	-ba-	.	8a\J	8cc#\J
.	.	.	.	.	.	.	.	.	.	16a\	-ba-	-ba-	.	.	.	.	.	.
=9	=9	=9	=9	=9	=9	=9	=9	=9	=9	=9	=9	=9	=9	=9	=9	=9	=9	=9
!	!	!	!LO:TX:t=P:problem=mixed beam	!	!	!	!	!	!	!	!	!	!	!	!	!	!	!
4D/	1ryy	8f#/L	8dd\L	4D/	-oth	-oth	4f#\	-oth	-oth	4a\	-oth	-oth	8dd\	-oth	-oth	1ryy	4a\	4dd\
.	.	8d/	8d/	.	.	.	.	.	.	.	.	.	8d/	Do-	Do-	.	.	.
4r	.	8f#/	8f#/	4r	.	.	4r	.	.	4r	.	.	8f#/	-mi-	-mi-	.	4r	4r
.	.	8a/J	8a/J	.	.	.	.	.	.	.	.	.	8a\	-nus	-nus	.	.	.
!	!	!	!	!	!	!	!	!	!	!	!	!	!LO:SIC:s=(2cc	!	!	!	!	!
8r	.	2cc\	2ccn\	8r	.	.	8r	.	.	8r	.	.	2cc\	De-	De-	.	8r	8r
8A\L	.	.	.	8A\	Do-	Do-	8e\	Do-	Do-	8a\	Do-	Do-	.	.	.	.	8a\L	8dd\L
8E\	.	.	.	8E\	-mi-	-mi-	8e\	-mi-	-mi-	8a\	-mi-	-mi-	.	.	.	.	8a\	8dd\
8F#\J	.	.	.	8F#\	-nus	-nus	8e\	-n(us)	-nus	8a\	-n(us)	-nus	.	.	.	.	8a\J	8dd\J
!	!	!	!	!	!	!	!	!	!	!	!	!	!LO:LB:g=original	!	!	!	!LO:LB:g=original	!LO:LB:g=original
=10	=10	=10	=10	=10	=10	=10	=10	=10	=10	=10	=10	=10	=10	=10	=10	=10	=10	=10
!LO:TX:t=P:problem=mixed beam	!	!	!	!	!	!	!	!	!	!	!	!	!LO:SIC:s=8b)	!	!	!	!	!
8G\L	4ryy	8b/L	8b/L	8G\	De-	De-	8d\	DE-	De-	8g\	De-	De-	8b\	-e-	.	4ryy	8b\L	8dd\L
8C\	.	8c/	16cc/L	8C/	-us	-us	8e\	-US	-us	8a\	-us	-us	16cc\LL	-us	-us	.	8a\	8cc\
.	.	.	16a/JJ	.	.	.	.	.	.	.	.	.	16a\JJ	.	.	.	.	.
!	!	!	!	!	!	!	!LO:LB:g=original	!	!	!	!	!	!	!	!	!	!	!
8D\	4ryy	8B/	8g/L	8.D/	Sa-	Sa-	8.d\	Sa-	Sa-	8.g\	Sa-	Sa-	8g/	Sa-	Sa-	4ryy	8g\	8b\
8DD/J	.	8A/J	8f#/J	.	.	.	.	.	.	.	.	.	8f#/	-ba-	-ba-	.	8d\J	8a\J
.	.	.	.	16D/	-ba-	-ba-	16d\	-ba-	-ba-	16f#\	-ba-	-ba-	.	.	.	.	.	.
!LO:LB:g=original	!	!	!	!	!	!	!	!	!	!	!	!	!	!	!	!	!	!
4GG/	2ryy	4B/	4g/	4GG/	-oth	-oth.	4d\	-oth	-oth.	4g\	-oth.	-oth.	4g/	-oth	-oth.	2ryy	4B/	4b\
4r	.	4r	4r	4r	.	.	4r	.	.	4r	.	.	4r	.	.	.	4r	4r
=11	=11	=11	=11	=11	=11	=11	=11	=11	=11	=11	=11	=11	=11	=11	=11	=11	=11	=11
!LO:TX:t=P:problem=skrótowy zapis oktawy:note=ukryte nuty nie wyświetlają się	!	!	!	!	!	!	!	!	!	!	!	!	!	!	!	!	!	!
!LO:TX:a:mod= :t=8	!	!	!	!	!	!	!	!	!	!	!	!	!	!	!	!	!	!
4dyy\ 4D	2ryy	4dd\	4ddd\	4D/	Ple-	Ple-	4d\	Ple-	Ple-	4dd\	Ple-	Ple-	4dd\	Ple-	Ple-	2ryy	4dd\	4dd\
!LO:TX:a:mod= :t=8	!	!	!	!	!	!	!	!	!	!	!	!	!	!	!	!	!	!
8Byy\L 8BB	.	8b\L	8bb\L	8BB/	-ni	-ni	8B\	-ni	-ni	8b\	-ni	-ni	8b\	-ni	-ni	.	8b\L	8b\L
!LO:TX:a:mod= :t=8	!	!	!	!	!	!	!	!	!	!	!	!	!	!	!	!	!	!
8cyy\J 8C	.	8cc\J	8ccc\J	8C/	Sunt	sunt	8c\	Sunt	sunt	8cc\	ſunt	ſunt	8cc\	sunt	sunt	.	8cc\J	8cc\J
!LO:TX:a:mod= :t=8	!	!	!	!	!	!	!	!	!	!	!	!	!	!	!	!	!	!
!	!	!	!	!LO:LB:g=original	!	!	!	!	!	!	!	!	!	!	!	!	!	!
4dyy\ 4D	2ryy	4dd\	4ddd\	4D/	Cae-	cae-	4d\	Cae-	cae-	4dd\	Cae-	cae-	4dd\	Cae-	cae-	2ryy	4dd\	4dd\
!LO:TX:a:mod= :t=8	!	!	!	!	!	!	!	!	!	!	!	!	!	!	!	!	!	!
8Byy\L 8BB	.	8b\L	8bb\L	8BB/	-li	-li	8B\	-li	-li	8b\	-li	-li	8b\	-li	-li	.	8b\L	8b\L
!LO:TX:a:mod= :t=8	!	!	!	!	!	!	!	!	!	!	!	!	!	!	!	!	!	!
8cyy\J 8C	.	8cc\J	8ccc\J	8C/	&	et	8c\	&	et	8cc\	&	et	8cc\	&	et	.	8cc\J	8cc\J
!	!	!	!	!	!	!	!	!	!	!LO:LB:g=original	!	!	!	!	!	!	!	!
=12	=12	=12	=12	=12	=12	=12	=12	=12	=12	=12	=12	=12	=12	=12	=12	=12	=12	=12
!LO:TX:a:mod= :t=8	!	!	!	!	!	!	!	!	!	!	!	!	!	!	!	!	!	!
!LO:MO:mod=8.dL 8.D	!	!	!	!	!	!	!	!	!	!	!	!	!	!	!	!	!	!LO:MO:mod=8.ddL
8dL/yy 8D	1ryy	8.dd\L	8.ddd\L	8.D/L	ter-	ter-	8.d\L	ter-	ter-	8.dd\L	ter-	ter-	8.dd\L	ter-	ter-	1ryy	8.dd\L	8dd\L
!LO:TX:a:mod= :t=8	!	!	!	!	!	!	!	!	!	!	!	!	!	!	!	!	!	!LO:MO:mod=.
!LO:MO:mod=.	!	!	!	!	!	!	!	!	!	!	!	!	!	!	!	!	!	!
8c/yy 8C	.	.	.	.	.	.	.	.	.	.	.	.	.	.	.	.	.	8cc\
!LO:MO:null:mod=16cJk 16C	!	!LO:SIC:s=16cc	!	!LO:SIC:s=16CJk	!	!	!	!	!	!	!	!	!	!	!	!	!LO:SIC:s=16cc	!LO:MO:null:mod=16cc
.	.	16cc\Jk	16ccc\K	16C/K	.	.	16c\Jk	.	.	16cc\Jk	.	.	16cc\Jk	.	.	.	16cc\Jk	.
!LO:TX:a:mod= :t=8	!	!	!	!	!	!	!	!	!	!	!	!	!	!	!	!	!	!
!LO:MO:mod=8.B 8.BB	!	!LO:MO:mod=8.b	!	!LO:SIC:s=8.BBL	!	!	!LO:MO:mod=8.BL	!	!	!	!	!	!	!	!	!	!LO:SIC:s=8.b	!LO:MO:mod=8.b
8B/yy 8BB	.	8b/L	8.bb\	8.BB/	.	.	8B\L	.	.	8.b\L	.	.	8.b\L	.	.	.	8.b\L	8b\
!LO:TX:a:mod= :t=8	!	!LO:MO:mod=.	!	!	!	!	!LO:MO:mod=.	!	!	!	!	!	!	!	!	!	!	!LO:MO:mod=.
!LO:MO:mod=.	!	!	!	!	!	!	!	!	!	!	!	!	!	!	!	!	!	!
8AJ/yy 8AA	.	8a/J	.	.	.	.	8A\J	.	.	.	.	.	.	.	.	.	.	8a\J
!LO:MO:null:mod=16AJk 16AA	!	!LO:MO:null:mod=16aJk	!	!	!	!	!LO:MO:null:mod=16A\Jk	!	!	!	!	!	!	!	!	!	!	!LO:MO:null:mod=16a\Jk
.	.	.	16aa\Jk	16AA/Jk	.	.	.	.	.	16a\Jk	.	.	16a\Jk	.	.	.	16a\Jk	.
!LO:TX:a:mod= :t=8	!	!	!	!	!	!	!	!	!	!	!	!	!	!	!	!	!	!
2G/yy 2GG	.	4.g/	4.gg\	2GG/	-ra	-ra	2G/	-ra	-ra	2g\	.	-ra	2g\	[[-ra]]	-ra	.	2g\	2g\
.	.	16b/LL	16bb\LL	.	.	.	.	.	.	.	.	.	.	.	.	.	.	.
.	.	16a/JJ	16aa\JJ	.	.	.	.	.	.	.	.	.	.	.	.	.	.	.
=13	=13	=13	=13	=13	=13	=13	=13	=13	=13	=13	=13	=13	=13	=13	=13	=13	=13	=13
2GG/	1ryy	8g/L	8gg\L	1GG	.	[glo-	1d	glo-	glo-	1g	.	glo-	1b	-ra	glo-	1ryy	1g	1b
.	.	8f#/	8ff#\	.	.	.	.	.	.	.	.	.	.	.	.	.	.	.
.	.	8e/	8ee\	.	.	.	.	.	.	.	.	.	.	.	.	.	.	.
!	!	!LO:TX:a:mod= :t=bis	!	!	!	!	!	!	!	!	!	!	!	!	!	!	!	!
.	.	8d/J	8dd\J	.	.	.	.	.	.	.	.	.	.	.	.	.	.	.
2GG/	.	16g/LL	16gg\LL	.	.	.	.	.	.	.	.	.	.	.	.	.	.	.
.	.	16f#/	16ff#\	.	.	.	.	.	.	.	.	.	.	.	.	.	.	.
.	.	16g/	16gg\	.	.	.	.	.	.	.	.	.	.	.	.	.	.	.
.	.	16a/JJ	16aa\JJ	.	.	.	.	.	.	.	.	.	.	.	.	.	.	.
.	.	8g/L	8gg\L	.	.	.	.	.	.	.	.	.	.	.	.	.	.	.
.	.	16b/L	16bb\L	.	.	.	.	.	.	.	.	.	.	.	.	.	.	.
.	.	16a/JJ	16aa\JJ	.	.	.	.	.	.	.	.	.	.	.	.	.	.	.
=14	=14	=14	=14	=14	=14	=14	=14	=14	=14	=14	=14	=14	=14	=14	=14	=14	=14	=14
!	!	!LO:TX:t=P:problem=takt zapisany repetycją, adnotacja "bis" 	!	!	!	!	!	!	!	!	!	!	!	!	!	!	!	!
2GG/	1ryy	8g/Lyy	8gg\L	1GG	.	.	1d	.	.	1g	.	.	1b	.	.	1ryy	1g	1b
!	!	!	!LO:TX:a:mod= :t=bis	!	!	!	!	!	!	!	!	!	!	!	!	!	!	!
.	.	8f#/yy	8ff#\	.	.	.	.	.	.	.	.	.	.	.	.	.	.	.
.	.	8e/yy	8ee\	.	.	.	.	.	.	.	.	.	.	.	.	.	.	.
.	.	8d/Jyy	8dd\J	.	.	.	.	.	.	.	.	.	.	.	.	.	.	.
2GG/	.	16g/LLyy	4.gg\	.	.	.	.	.	.	.	.	.	.	.	.	.	.	.
.	.	16f#/yy	.	.	.	.	.	.	.	.	.	.	.	.	.	.	.	.
.	.	16g/yy	.	.	.	.	.	.	.	.	.	.	.	.	.	.	.	.
.	.	16a/JJyy	.	.	.	.	.	.	.	.	.	.	.	.	.	.	.	.
.	.	8g/Lyy	.	.	.	.	.	.	.	.	.	.	.	.	.	.	.	.
.	.	16b/Lyy	16bb\LL	.	.	.	.	.	.	.	.	.	.	.	.	.	.	.
.	.	16a/JJyy	16aa\JJ	.	.	.	.	.	.	.	.	.	.	.	.	.	.	.
=15	=15	=15	=15	=15	=15	=15	=15	=15	=15	=15	=15	=15	=15	=15	=15	=15	=15	=15
!	!	!	!LO:TX:t=P:problem=takt zapisany repetycją, adnotacja "bis" 	!	!	!	!	!	!	!	!	!	!	!	!	!	!	!
1GG	1ryy	8g/L	8gg\Lyy	1GG	.	-ri-	1d	-ri-	-ri-	1g	.	-ri-	1b	.	-ri-	1ryy	1g	1b
.	.	8f#/	8ff#\yy	.	.	.	.	.	.	.	.	.	.	.	.	.	.	.
.	.	8e/	8ee\yy	.	.	.	.	.	.	.	.	.	.	.	.	.	.	.
.	.	8d/J	8dd\Jyy	.	.	.	.	.	.	.	.	.	.	.	.	.	.	.
.	.	16g/LL	4.gg\yy	.	.	.	.	.	.	.	.	.	.	.	.	.	.	.
.	.	16f#/	.	.	.	.	.	.	.	.	.	.	.	.	.	.	.	.
.	.	16g/	.	.	.	.	.	.	.	.	.	.	.	.	.	.	.	.
.	.	16a/JJ	.	.	.	.	.	.	.	.	.	.	.	.	.	.	.	.
.	.	8g/L	.	.	.	.	.	.	.	.	.	.	.	.	.	.	.	.
.	.	16b/L	16bb\LLyy	.	.	.	.	.	.	.	.	.	.	.	.	.	.	.
.	.	16a/JJ	16aa\JJyy	.	.	.	.	.	.	.	.	.	.	.	.	.	.	.
=16	=16	=16	=16	=16	=16	=16	=16	=16	=16	=16	=16	=16	=16	=16	=16	=16	=16	=16
1GG	1ryy	8g/L	8gg\L	1GG	.	-a]	1d	-a	-a	1g	-ra	-a	1b	.	-a	1ryy	1g	1b
.	.	8f#/	8ff#\	.	.	.	.	.	.	.	.	.	.	.	.	.	.	.
.	.	8e/	8ee\	.	.	.	.	.	.	.	.	.	.	.	.	.	.	.
.	.	8d/J	8dd\J	.	.	.	.	.	.	.	.	.	.	.	.	.	.	.
.	.	2g/	2gg\	.	.	.	.	.	.	.	.	.	.	.	.	.	.	.
=17	=17	=17	=17	=17	=17	=17	=17	=17	=17	=17	=17	=17	=17	=17	=17	=17	=17	=17
!LO:TX:t=P:problem=skrótowy zapis oktawy:note=ukryte nuty nie wyświetlają się	!	!	!	!	!	!	!	!	!	!	!	!	!	!	!	!	!	!
!LO:TX:a:mod= :t=8	!	!	!	!	!	!	!	!	!	!	!	!	!	!	!	!	!	!
4A/yy 4AA	1ryy	4a/	4aa\	4A\	Ple-	ple-	4A/	Ple-	ple-	4a\	Ple-	ple-	4aa\	Ple-	ple-	1ryy	4d/	4a\
!LO:TX:a:mod= :t=8	!	!	!	!	!	!	!	!	!	!	!	!	!	!	!	!	!	!
8F#/Lyy 8FF#	.	8f#/L	8ff#\L	8F#\	-ni	-ni	8F#/	-ni	-ni	8f#\	-ni	-ni	8ff#\	-ni	-ni	.	8d/L	8a\L
!LO:TX:a:mod= :t=8	!	!	!	!	!	!	!	!	!	!	!	!	!	!	!	!	!	!
8G/Jyy 8GG	.	8g/J	8gg\J	8G\	ſunt	ſunt	8G/	S(un)t	sunt	8g\	ſunt	ſunt	8gg\	ſunt	ſunt	.	8d/J	8a\J
!LO:TX:a:mod= :t=8	!	!	!	!	!	!	!	!	!	!	!	!	!	!	!	!	!	!
4A/yy 4AA	.	4a/	4aa\	4A\	Cae-	cae-	4A/	Cae-	cae-	4a\	Cae-	cae-	4aa\	Cae-	cae-	.	4d/	4a\
!LO:TX:a:mod= :t=8	!	!	!	!	!	!	!	!	!	!	!	!	!	!	!	!	!	!
8F#/Lyy 8FF#	.	8f#/L	8ff#\L	8F#\	-li	-li	8F#/	-li	-li	8f#\	-li	-li	8ff#\	-li	-li	.	8d/L	8a\L
!LO:TX:a:mod= :t=8	!	!	!	!	!	!	!	!	!	!	!	!	!	!	!	!	!	!
8G/Jyy 8GG	.	8g/J	8gg\J	8G\	&	et	8G/	&	et	8g\	&	et	8gg\	&	et	.	8d/J	8a\J
!	!	!	!LO:LB:g=original	!	!	!	!	!	!	!	!	!	!	!	!	!	!	!
=18	=18	=18	=18	=18	=18	=18	=18	=18	=18	=18	=18	=18	=18	=18	=18	=18	=18	=18
!LO:TX:a:mod= :t=8	!	!	!	!	!	!	!	!	!	!	!	!	!	!	!	!	!LO:MO:mod=8.aL	!
8.A/Lyy 8.AA	4ryy	8.a/L	8.aa\L	8.A\L	ter-	ter-	8.A/L	ter-	ter-	8.a\L	ter-	ter-	8.aa\L	ter-	ter-	4ryy	8a\L	8.a\L
!	!	!	!	!	!	!	!	!	!	!	!	!	!	!	!	!	!LO:MO:mod=.	!
.	.	.	.	.	.	.	.	.	.	.	.	.	.	.	.	.	8a\	.
!LO:SIC:s=16G 16GG	!	!	!	!	!	!	!	!	!	!	!	!	!	!	!	!	!	!
!LO:TX:a:mod= :t=8	!	!LO:SIC:s=16g	!	!LO:SIC:s=16GJk	!	!	!LO:SIC:s=16GJk	!	!	!LO:SIC:s=16gJk	!	!	!	!	!	!	!LO:MO:null:mod=16aJk	!LO:MO:mod=16a
16G/Jkyy 16GG	.	16g/Jk	16gg\	16G\K	.	.	16G/K	.	.	16g\K	.	.	16gg\Jk	.	.	.	.	16a\K
!LO:TX:a:mod= :t=8	!	!LO:SIC:s=8.f#	!	!	!	!	!	!	!	!	!	!	!	!	!	!	!	!
!LO:SIC:s=8.F# 8.FF#	!	!LO:LB:g=original	!	!LO:SIC:s=8.F#L	!	!	!LO:SIC:s=8.F#L	!	!	!LO:SIC:s=8.f#L	!	!	!	!	!	!	!LO:MO:mod=8.a	!LO:MO:mod=8.a
8.F#/Lyy 8.FF#	4ryy	8.f#/L	8.ff#	8.F#\	.	.	8.F#/	.	.	8.f#\	.	.	8.ff#\L	.	.	4ryy	8a\	8a\
!	!	!	!	!	!	!	!	!	!	!	!	!	!	!	!	!	!LO:MO:mod=.	!LO:MO:mod=.
.	.	.	.	.	.	.	.	.	.	.	.	.	.	.	.	.	8a\J	8a\J
!LO:TX:a:mod= :t=8	!	!	!	!	!	!	!	!	!	!	!	!	!	!	!	!	!LO:MO:null:mod=16aJk	!LO:MO:null:mod=16aJk
16E/Jkyy 16EE	.	16e/Jk	16ee\Jk	16E\Jk	.	.	16E/Jk	.	.	16e\Jk	.	.	16ee\Jk	.	.	.	.	.
!LO:TX:a:mod= :t=8	!	!	!	!	!	!	!	!	!	!	!	!	!	!	!	!	!	!
!LO:LB:g=original	!	!	!	!	!	!	!	!	!	!	!	!	!	!	!	!	!	!
2D/yy 2DD	2ryy	4.d/	4.dd\	2D/	-ra	-ra	2D/	-ra	-ra	2d\	-ra	-ra	2dd\	-ra	-ra	2ryy	2d/	2a\
.	.	16f#/LL	16ff#\LL	.	.	.	.	.	.	.	.	.	.	.	.	.	.	.
.	.	16e/JJ	16ee\JJ	.	.	.	.	.	.	.	.	.	.	.	.	.	.	.
!	!	!	!	!	!	!	!	!	!	!	!	!	!LO:LB:g=original	!	!	!	!	!
=19	=19	=19	=19	=19	=19	=19	=19	=19	=19	=19	=19	=19	=19	=19	=19	=19	=19	=19
!LO:TX:t=P:problem=takty 19-21 zapisane skrótem w jednym takcie adnotacja "3"	!	!	!	!	!	!	!	!	!	!	!	!	!	!	!	!	!	!
!LO:TX:a:mod= :t=3	!	!	!	!	!	!	!	!	!	!	!	!	!	!	!	!	!	!
!LO:MO:mod=[1D [1DD	!	!	!	!	!	!	!	!	!	!	!	!	!	!	!	!	!	!
0.D 0.DD	1ryy	8d/L	8dd\L	1D	glo-	glo-	1d	glo-	glo-	1a	glo-	glo-	1ff#	glo-	glo-	1ryy	1d	1a
.	.	8c/	8cc\	.	.	.	.	.	.	.	.	.	.	.	.	.	.	.
.	.	8B/	8b\	.	.	.	.	.	.	.	.	.	.	.	.	.	.	.
.	.	8A/J	8a\J	.	.	.	.	.	.	.	.	.	.	.	.	.	.	.
.	.	8.d/L	16dd\LL	.	.	.	.	.	.	.	.	.	.	.	.	.	.	.
!	!	!	!LO:SIC:v:s=16cc#\	!	!	!	!	!	!	!	!	!	!	!	!	!	!	!
.	.	.	16cc\	.	.	.	.	.	.	.	.	.	.	.	.	.	.	.
.	.	.	16dd\	.	.	.	.	.	.	.	.	.	.	.	.	.	.	.
!	!	!LO:SIC:v:s=16c#Jk	!	!	!	!	!	!	!	!	!	!	!	!	!	!	!	!
.	.	16c/Jk	16ee\JJ	.	.	.	.	.	.	.	.	.	.	.	.	.	.	.
.	.	8d/L	8dd\L	.	.	.	.	.	.	.	.	.	.	.	.	.	.	.
.	.	16f#/L	16ff#\L	.	.	.	.	.	.	.	.	.	.	.	.	.	.	.
.	.	16e/JJ	16ee\JJ	.	.	.	.	.	.	.	.	.	.	.	.	.	.	.
=20	=20	=20	=20	=20	=20	=20	=20	=20	=20	=20	=20	=20	=20	=20	=20	=20	=20	=20
!LO:MO:null:mod=1D_ 1DD_	!	!	!	!	!	!	!	!	!	!	!	!	!	!	!	!	!	!
.	1ryy	8d/L	8dd\L	1D	.	.	1d	.	.	1a	.	.	1ff#	.	.	1ryy	1d	1a
.	.	8c/	8cc\	.	.	.	.	.	.	.	.	.	.	.	.	.	.	.
.	.	8B/	8b\	.	.	.	.	.	.	.	.	.	.	.	.	.	.	.
!	!	!LO:TX:a:mod= :t=bis	!	!	!	!	!	!	!	!	!	!	!	!	!	!	!	!
.	.	8A/J	8a\J	.	.	.	.	.	.	.	.	.	.	.	.	.	.	.
.	.	16d/LL	4.dd\	.	.	.	.	.	.	.	.	.	.	.	.	.	.	.
!	!	!LO:SIC:v:s=16c#	!	!	!	!	!	!	!	!	!	!	!	!	!	!	!	!
.	.	16c/	.	.	.	.	.	.	.	.	.	.	.	.	.	.	.	.
.	.	16d/	.	.	.	.	.	.	.	.	.	.	.	.	.	.	.	.
.	.	16e/JJ	.	.	.	.	.	.	.	.	.	.	.	.	.	.	.	.
.	.	8d/L	.	.	.	.	.	.	.	.	.	.	.	.	.	.	.	.
.	.	16f#/L	16ff#\LL	.	.	.	.	.	.	.	.	.	.	.	.	.	.	.
.	.	16e/JJ	16ee\JJ	.	.	.	.	.	.	.	.	.	.	.	.	.	.	.
=21	=21	=21	=21	=21	=21	=21	=21	=21	=21	=21	=21	=21	=21	=21	=21	=21	=21	=21
!LO:MO:null:mod=1D] 1DD]	!	!LO:TX:t=P:problem=takt zapisany repetycją, adnotacja "bis" 	!	!	!	!	!	!	!	!	!	!	!	!	!	!	!	!
.	1ryy	8d/Lyy	8dd\L	1D	.	.	1d	.	.	1a	.	.	1ff#	.	.	1ryy	1d	1a
.	.	8c/yy	8cc\	.	.	.	.	.	.	.	.	.	.	.	.	.	.	.
.	.	8B/yy	8b\	.	.	.	.	.	.	.	.	.	.	.	.	.	.	.
.	.	8A/Jyy	8a\J	.	.	.	.	.	.	.	.	.	.	.	.	.	.	.
.	.	16d/LLyy	16dd\LL	.	.	.	.	.	.	.	.	.	.	.	.	.	.	.
!	!	!LO:SIC:v:s=16c#	!LO:SIC:v:s=16cc#\	!	!	!	!	!	!	!	!	!	!	!	!	!	!	!
.	.	16c/yy	16cc\	.	.	.	.	.	.	.	.	.	.	.	.	.	.	.
.	.	16d/yy	16dd\	.	.	.	.	.	.	.	.	.	.	.	.	.	.	.
.	.	16e/JJyy	16ee\JJ	.	.	.	.	.	.	.	.	.	.	.	.	.	.	.
.	.	8d/Lyy	8dd\L	.	.	.	.	.	.	.	.	.	.	.	.	.	.	.
.	.	16f#/Lyy	16ff#\L	.	.	.	.	.	.	.	.	.	.	.	.	.	.	.
.	.	16e/JJyy	16ee\JJ	.	.	.	.	.	.	.	.	.	.	.	.	.	.	.
!	!	!	!	!LO:LB:g=original	!	!	!	!	!	!	!	!	!	!	!	!	!	!
=22	=22	=22	=22	=22	=22	=22	=22	=22	=22	=22	=22	=22	=22	=22	=22	=22	=22	=22
*^	*	*^	*^	*	*	*	*	*	*	*	*	*	*	*	*	*	*	*
2D/	2DD/	1ryy	8d/L	2ryyyy	8dd\L	2ryyyy	4.D/	.	.	4.d\	.	.	4.a\	.	.	2ff#\	-ri-	-ri-	1ryy	1d	1a
.	.	.	8c/	.	8cc\	.	.	.	.	.	.	.	.	.	.	.	.	.	.	.	.
.	.	.	8B/	.	8b\	.	.	.	.	.	.	.	.	.	.	.	.	.	.	.	.
.	.	.	8A/J	.	8a\J	.	8D/	-ri-	-ri-	8d\	-ri-	-ri-	8a\	-ri-	-ri-	.	.	.	.	.	.
4.D/	[2DD/	.	2a/	2f#\	2dd/	2f#\	4D/	-a	-a	4d\	-a	-a	4a\	-a	-a	4.ff#\	-a	-a	.	.	.
.	.	.	.	.	.	.	8r	.	.	8r	.	.	8r	.	.	.	.	.	.	.	.
!	!	!	!	!	!	!	!LO:SIC:v:s=16F#LL	!	!	!	!	!	!	!	!	!	!	!	!	!	!
16F#/LL	.	.	.	.	.	.	16G\LL	glo-	glo-	16f#\LL	glo-	glo-	16f#\LL	glo-	glo-	16ff#\LL	glo-	glo-	.	.	.
!	!	!	!	!	!	!	!LO:SIC:v:s=16EJJ	!	!	!	!	!	!	!	!	!	!	!	!	!	!
16E/JJ	.	.	.	.	.	.	16F#\JJ	.	.	16e\JJ	.	.	16e\JJ	.	.	16ee\JJ	.	.	.	.	.
!	!	!	!	!	!	!	!	!	!	!	!	!	!LO:LB:g=original	!	!	!	!	!	!	!	!
=23	=23	=23	=23	=23	=23	=23	=23	=23	=23	=23	=23	=23	=23	=23	=23	=23	=23	=23	=23	=23	=23
8D/L	1DD_	1ryy	2a/	2f#\	2dd/	2f#\	8D/L	.	.	8d\L	.	.	8d\L	.	.	8dd\L	.	.	1ryy	1d	1a
8C/	.	.	.	.	.	.	8C/	.	.	8c\	.	.	8c\	.	.	8cc\	.	.	.	.	.
8BB/	.	.	.	.	.	.	8BB/	.	.	8B\	.	.	8B\	.	.	8b\	.	.	.	.	.
8AA/J	.	.	.	.	.	.	8AA/J	.	.	8A\J	.	.	8A\J	.	.	8a\J	.	.	.	.	.
16D/LL	.	.	2a/	2f#\	2dd/	2f#\	16D\LL	.	.	16d\LL	.	.	16d\LL	.	.	16dd\LL	.	.	.	.	.
!LO:SIC:v:s=16C#	!	!	!	!	!	!	!LO:SIC:v:s=16C#	!	!	!LO:SIC:v:s=16c#	!	!	!	!	!	!LO:SIC:v:s=16cc#	!	!	!	!	!
16C/	.	.	.	.	.	.	16C\	.	.	16c\	.	.	16c#X\	.	.	16cc\	.	.	.	.	.
16D/	.	.	.	.	.	.	16D\	.	.	16d\	.	.	16d\	.	.	16dd\	.	.	.	.	.
16E/JJ	.	.	.	.	.	.	16E\JJ	.	.	16e\JJ	.	.	16e\JJ	.	.	16ee\JJ	.	.	.	.	.
8D/L	.	.	.	.	.	.	8D\L	.	.	8d\L	.	.	8d\L	.	.	8dd\L	.	.	.	.	.
16F#/L	.	.	.	.	.	.	16F#\L	.	.	16f#\L	.	.	16f#\L	.	.	16ff#\L	.	.	.	.	.
16E/JJ	.	.	.	.	.	.	16E\JJ	.	.	16e\JJ	.	.	16e\JJ	.	.	16ee\JJ	.	.	.	.	.
=24	=24	=24	=24	=24	=24	=24	=24	=24	=24	=24	=24	=24	=24	=24	=24	=24	=24	=24	=24	=24	=24
8D/L	1DD_	2ryy	1a	1f#	2dd/	2f#\	8D/L	.	.	8d\L	.	.	8d\L	.	.	8dd\L	.	.	2ryy	1d	1a
8C/	.	.	.	.	.	.	8C/	.	.	8c\	.	.	8c\	.	.	8cc\	.	.	.	.	.
8BB/	.	.	.	.	.	.	8BB/	.	.	8B\	.	.	8B\	.	.	8b\	.	.	.	.	.
8AA/J	.	.	.	.	.	.	8AA/J	.	.	8A\J	.	.	8A\J	.	.	8a\J	.	.	.	.	.
!	!	!	!	!	!	!	!	!	!	!LO:LB:g=original	!	!	!	!	!	!	!	!	!	!	!
4.D/	.	2ryy	.	.	2dd/	2f#\	4.D\	.	.	4.d\	.	.	16d\LL	.	.	16dd\LL	.	.	2ryy	.	.
!	!	!	!	!	!	!	!	!	!	!	!	!	!LO:SIC:v:s=16c#	!	!	!LO:SIC:v:s=16cc#	!	!	!	!	!
.	.	.	.	.	.	.	.	.	.	.	.	.	16c\	.	.	16cc\	.	.	.	.	.
.	.	.	.	.	.	.	.	.	.	.	.	.	16d\	.	.	16dd\	.	.	.	.	.
.	.	.	.	.	.	.	.	.	.	.	.	.	16e\JJ	.	.	16ee\JJ	.	.	.	.	.
.	.	.	.	.	.	.	.	.	.	.	.	.	8d\L	.	.	8dd\L	.	.	.	.	.
16F#/LL	.	.	.	.	.	.	16F#\LL	.	.	16f#\LL	.	.	16f#\L	.	.	16ff#\L	.	.	.	.	.
16E/JJ	.	.	.	.	.	.	16E\JJ	.	.	16e\JJ	.	.	16e\JJ	.	.	16ee\JJ	.	.	.	.	.
=25	=25	=25	=25	=25	=25	=25	=25	=25	=25	=25	=25	=25	=25	=25	=25	=25	=25	=25	=25	=25	=25
8D/L	1DD_	1ryy	1a	1f#	2dd/	2f#\	8D/L	.	.	8d\L	.	.	8d\L	.	.	8dd\L	.	.	1ryy	1d	1a
8C/	.	.	.	.	.	.	8C/	.	.	8c\	.	.	8c\	.	.	8cc\	.	.	.	.	.
8BB/	.	.	.	.	.	.	8BB/	.	.	8B\	.	.	8B\	.	.	8b\	.	.	.	.	.
8AA/J	.	.	.	.	.	.	8AA/J	.	.	8A\J	.	.	8A\J	.	.	8a\J	.	.	.	.	.
16D/LL	.	.	.	.	2dd/	2f#\	16D\LL	.	.	16d\LL	.	.	16d\LL	.	.	16dd\LL	.	.	.	.	.
!LO:SIC:v:s=16C#	!	!	!	!	!	!	!LO:SIC:v:s=16C#	!	!	!	!	!	!	!	!	!LO:SIC:v:s=16cc#	!	!	!	!	!
16C/	.	.	.	.	.	.	16C\	.	.	16c#X\	.	.	16c#X\	.	.	16cc\	.	.	.	.	.
16D/	.	.	.	.	.	.	16D\	.	.	16d\	.	.	16d\	.	.	16dd\	.	.	.	.	.
16E/JJ	.	.	.	.	.	.	16E\JJ	.	.	16e\JJ	.	.	16e\JJ	.	.	16ee\JJ	.	.	.	.	.
8D/L	.	.	.	.	.	.	8D\L	.	.	8d\L	.	.	8d\L	.	.	8dd\L	.	.	.	.	.
16F#/L	.	.	.	.	.	.	16F#\L	.	.	16f#\L	.	.	16f#\L	.	.	16ff#\L	.	.	.	.	.
16E/JJ	.	.	.	.	.	.	16E\JJ	.	.	16e\JJ	.	.	16e\JJ	.	.	16ee\JJ	.	.	.	.	.
!LO:LB:g=original	!	!	!	!	!	!	!	!	!	!	!	!	!	!	!	!	!	!	!	!	!
=26	=26	=26	=26	=26	=26	=26	=26	=26	=26	=26	=26	=26	=26	=26	=26	=26	=26	=26	=26	=26	=26
8D/L	1DD]	2ryy	2a/	2f#\	2dd/	2f#\	8D/L	.	.	8d\L	.	.	8d\L	.	.	8dd\L	.	.	2ryy	2d/	2a\
!	!	!	!	!	!	!	!	!	!	!LO:SIC:s=8cJ	!	!	!LO:SIC:s=8cJ	!	!	!LO:SIC:s=8ccJ	!	!	!	!	!
8C#X/	.	.	.	.	.	.	8C/J	.	.	8c\	.	.	8c\	.	.	8cc\	.	.	.	.	.
8BB/	.	.	.	.	.	.	8BB/	-ri-	-ri-	8B\	.	-ri-	8B\	.	-ri-	8b\	-ri-	-ri-	.	.	.
!	!	!	!	!	!	!	!	!	!	!LO:SIC:s=8A	!	!	!LO:SIC:s=8A	!	!	!LO:SIC:s=8a	!	!	!	!	!
8AA/J	.	.	.	.	.	.	8AA/	-a	-a	8A\J	.	-a	8A\J	-ri-	-a	8a\J	.	-a	.	.	.
!	!	!	!	!	!	!	!LO:LB:g=original	!	!	!	!	!	!	!	!	!	!	!	!	!	!
2D/	.	2ryy	4.a/	4.f#\	4.dd/	4.f#\	2D/	tu-	tu-	2d\	.	[tu-	2d\	-a	[tu-	2dd\	-a	[tu-	2ryy	4.d/	4a\
.	.	.	.	.	.	.	.	.	.	.	.	.	.	.	.	.	.	.	.	.	4b\
.	.	.	16b/LL	8ryyyy	16bb\LL	8ryyyy	.	.	.	.	.	.	.	.	.	.	.	.	.	8g\	.
.	.	.	16a/JJ	.	16aa\JJ	.	.	.	.	.	.	.	.	.	.	.	.	.	.	.	.
*v	*v	*	*	*	*v	*v	*	*	*	*	*	*	*	*	*	*	*	*	*	*	*
*	*	*v	*v	*	*	*	*	*	*	*	*	*	*	*	*	*	*	*	*
!	!	!	!	!	!	!	!	!	!	!	!	!	!LO:LB:g=original	!	!	!	!	!LO:LB:g=original
=27	=27	=27	=27	=27	=27	=27	=27	=27	=27	=27	=27	=27	=27	=27	=27	=27	=27	=27
1G 1GG	1ryy	8g/L	8gg\L	1GG	-a	-a	1d	.	-a]	1b	glo-	-a]	1gg	glo-	-a]	1ryy	1g	1b
.	.	8f#/	8ff#\	.	.	.	.	.	.	.	.	.	.	.	.	.	.	.
.	.	8e/	8ee\	.	.	.	.	.	.	.	.	.	.	.	.	.	.	.
.	.	8d/J	8dd\J	.	.	.	.	.	.	.	.	.	.	.	.	.	.	.
.	.	16g/LL	16gg\LL	.	.	.	.	.	.	.	.	.	.	.	.	.	.	.
.	.	16f#/	16ff#\	.	.	.	.	.	.	.	.	.	.	.	.	.	.	.
.	.	16g/	16gg\	.	.	.	.	.	.	.	.	.	.	.	.	.	.	.
.	.	16a/JJ	16aa\JJ	.	.	.	.	.	.	.	.	.	.	.	.	.	.	.
.	.	8g/L	8gg\L	.	.	.	.	.	.	.	.	.	.	.	.	.	.	.
.	.	16b/L	16bb\L	.	.	.	.	.	.	.	.	.	.	.	.	.	.	.
.	.	16a/JJ	16aa\JJ	.	.	.	.	.	.	.	.	.	.	.	.	.	.	.
!	!	!	!LO:LB:g=original	!	!	!	!	!	!	!	!	!	!	!	!	!	!LO:LB:g=original	!
=28	=28	=28	=28	=28	=28	=28	=28	=28	=28	=28	=28	=28	=28	=28	=28	=28	=28	=28
1G 1GG	1ryy	8g/L	8gg\L	1GG	.	glo-	1d	.	glo-	1b	.	glo-	1gg	.	glo-	1ryy	1g	1b
.	.	8f#/	8ff#\	.	.	.	.	.	.	.	.	.	.	.	.	.	.	.
.	.	8e/	8ee\	.	.	.	.	.	.	.	.	.	.	.	.	.	.	.
.	.	8d/J	8dd\J	.	.	.	.	.	.	.	.	.	.	.	.	.	.	.
!	!	!LO:TX:a:mod= :t=bis	!	!	!	!	!	!	!	!	!	!	!	!	!	!	!	!
.	.	16g/LL	4.gg\	.	.	.	.	.	.	.	.	.	.	.	.	.	.	.
.	.	16f#/	.	.	.	.	.	.	.	.	.	.	.	.	.	.	.	.
.	.	16g/	.	.	.	.	.	.	.	.	.	.	.	.	.	.	.	.
.	.	16a/JJ	.	.	.	.	.	.	.	.	.	.	.	.	.	.	.	.
.	.	8g/L	.	.	.	.	.	.	.	.	.	.	.	.	.	.	.	.
.	.	16b/L	16bb\LL	.	.	.	.	.	.	.	.	.	.	.	.	.	.	.
.	.	16a/JJ	16aa\JJ	.	.	.	.	.	.	.	.	.	.	.	.	.	.	.
!	!	!	!	!	!	!	!	!	!	!LO:LB:g=original	!	!	!	!	!	!	!	!
=29	=29	=29	=29	=29	=29	=29	=29	=29	=29	=29	=29	=29	=29	=29	=29	=29	=29	=29
!	!	!LO:TX:t=P:problem=takt zapisany repetycją, adnotacja "bis" 	!	!	!	!	!	!	!	!	!	!	!	!	!	!	!	!
1G 1GG	1ryy	8g/Lyy	8gg\L	1GG	.	.	1d	.	.	1b	.	.	1gg	.	.	1ryy	1g	1b
.	.	8f#/yy	8ff#\	.	.	.	.	.	.	.	.	.	.	.	.	.	.	.
.	.	8e/yy	8ee\	.	.	.	.	.	.	.	.	.	.	.	.	.	.	.
.	.	8d/Jyy	8dd\J	.	.	.	.	.	.	.	.	.	.	.	.	.	.	.
.	.	16g/LLyy	16gg\LL	.	.	.	.	.	.	.	.	.	.	.	.	.	.	.
.	.	16f#/yy	16ff#\	.	.	.	.	.	.	.	.	.	.	.	.	.	.	.
.	.	16g/yy	16gg\	.	.	.	.	.	.	.	.	.	.	.	.	.	.	.
.	.	16a/JJyy	16aa\JJ	.	.	.	.	.	.	.	.	.	.	.	.	.	.	.
.	.	8g/Lyy	8gg\L	.	.	.	.	.	.	.	.	.	.	.	.	.	.	.
.	.	16b/Lyy	16bb\L	.	.	.	.	.	.	.	.	.	.	.	.	.	.	.
.	.	16a/JJyy	16aa\JJ	.	.	.	.	.	.	.	.	.	.	.	.	.	.	.
!	!	!LO:LB:g=original	!	!	!	!	!	!	!	!	!	!	!	!	!	!	!	!
=30	=30	=30	=30	=30	=30	=30	=30	=30	=30	=30	=30	=30	=30	=30	=30	=30	=30	=30
1G 1GG	1ryy	8g/L	8gg\L	4.GG/	glo-	.	4.d\	.	.	4.b\	.	.	4gg\	.	.	1ryy	1g	1b
.	.	8f#/	8ff#\	.	.	.	.	.	.	.	.	.	.	.	.	.	.	.
.	.	8e/	8ee\	.	.	.	.	.	.	.	.	.	4gg\	-ri-	-ri-	.	.	.
.	.	8d/J	8dd\J	8GG/	-ri-	-ri-	8d\	-ri-	-ri-	8b\	-ri-	-ri-	.	.	.	.	.	.
.	.	2g/	2gg\	2GG/	-a	-a	2d\	-a	-a	2b\	-a	-a	2gg\	-a	-a	.	.	.
=31	=31	=31	=31	=31	=31	=31	=31	=31	=31	=31	=31	=31	=31	=31	=31	=31	=31	=31
!LO:TX:t=P:problem=skrótowy zapis oktawy:note=ukryte nuty nie wyświetlają się	!	!	!	!	!	!	!	!	!	!	!	!	!	!	!	!	!	!
!LO:TX:b:mod= :t=8	!	!	!	!	!	!	!	!	!	!	!	!	!	!	!	!	!	!
4d/yy 4D	1ryy	4dd\	4ddd\	4D/	Ple-	ple-	4d\	ple-	ple-	4d\	Ple-	ple-	4dd\	Ple-	ple-	1ryy	4dd\	4dd\
!LO:TX:b:mod= :t=8	!	!	!	!	!	!	!	!	!	!	!	!	!	!	!	!	!	!
8B/Lyy 8BB	.	8b\L	8bb\L	8BB/	-ni	-ni	8B\	-ni	-ni	8B/	-ni	-ni	8b\	-ni	-ni	.	8b\L	8b\L
!LO:TX:b:mod= :t=8	!	!	!	!	!	!	!	!	!	!	!	!	!	!	!	!	!	!
8c/Jyy 8C	.	8cc\J	8ccc\J	8C/	ſunt	ſunt	8c\	Sunt	sunt	8c/	ſunt	ſunt	8cc\	sunt,	sunt	.	8cc\J	8cc\J
!LO:TX:b:mod= :t=8	!	!	!	!	!	!	!	!	!	!	!	!	!	!	!	!	!	!
4d/yy 4D	.	4dd\	4ddd\	4D/	Cae-	cae-	4d\	Cae-	cae-	4d\	Cae-	cae-	4dd\	Cae-	cae-	.	4dd\	4dd\
!LO:TX:b:mod= :t=8	!	!	!	!	!	!	!	!	!	!	!	!	!	!	!	!	!	!
8B/Lyy 8BB	.	8b\L	8bb\L	8BB/	-li	-li	8B\	-li	-li	8B/	-li	-li	8b\	-li	-li	.	8b\L	8b\L
!LO:TX:b:mod= :t=8	!	!	!	!	!	!	!	!	!	!	!	!	!	!	!	!	!	!
8c/Jyy 8C	.	8cc\J	8ccc\J	8C/	&	et	8c\	&	et	8c/	&	et	8cc\	&	et	.	8cc\J	8cc\J
=32	=32	=32	=32	=32	=32	=32	=32	=32	=32	=32	=32	=32	=32	=32	=32	=32	=32	=32
*^	*	*	*	*	*	*	*	*	*	*	*	*	*	*	*	*	*	*
!LO:TX:b:mod= :t=8	!	!	!	!	!	!	!	!	!	!	!	!	!	!	!	!	!	!	!LO:MO:mod=8.ddL
8.d/Lyy 8.D	2ryyyy	1ryy	8.dd\L	8.ddd\L	8.D/L	ter-	ter-	8.d\L	ter-	ter-	8.d\L	ter-	ter-	8.dd\L	ter-	ter-	1ryy	8.dd\L	8dd\L
!	!	!	!	!	!	!	!	!	!	!	!	!	!	!	!	!	!	!	!LO:MO:mod=.
.	.	.	.	.	.	.	.	.	.	.	.	.	.	.	.	.	.	.	8cc\
!LO:SIC:s=16c 16C	!	!	!	!	!	!	!	!	!	!	!	!	!	!	!	!	!	!	!
!LO:TX:b:mod= :t=8	!	!	!	!	!LO:SIC:s=16CJk	!	!	!LO:SIC:s=16cJk	!	!	!	!	!	!	!	!	!	!LO:SIC:s=16cc	!LO:MO:null:mod=16cc
16c/Jkyy 16C	.	.	16cc\K	16ccc\K	16C/K	.	.	16c\K	.	.	16c\Jk	.	.	16cc\Jk	.	.	.	16cc\Jk	.
!LO:SIC:s=8.B 8.BB	!	!	!	!	!	!	!	!	!	!	!	!	!	!	!	!	!	!	!
!LO:TX:b:mod= :t=8	!	!	!	!	!LO:SIC:s=8.BBL	!	!	!LO:SIC:s=8.BL	!	!	!	!	!	!	!	!	!	!LO:SIC:s=8.b	!LO:MO:mod=8.b
8.B/Lyy 8.BB	.	.	8.b\	8.bb\	8.BB/	.	.	8.B\	.	.	8.B/L	.	.	8.b\L	.	.	.	8.b\L	8b\
!	!	!	!	!	!	!	!	!	!	!	!	!	!	!	!	!	!	!	!LO:MO:mod=.
.	.	.	.	.	.	.	.	.	.	.	.	.	.	.	.	.	.	.	8a\J
!LO:TX:b:mod= :t=8	!	!	!	!	!	!	!	!	!	!	!	!	!	!	!	!	!	!	!LO:MO:null:mod=16a\Jk
16A/Jkyy 16AA	.	.	16a\Jk	16aa\Jk	16AA/Jk	.	.	16A\Jk	.	.	16A/Jk	.	.	16a\Jk	.	.	.	16a\Jk	.
*	*2\right	*	*	*	*	*	*	*	*	*	*	*	*	*	*	*	*	*	*
2G 2D/	2GG\	.	2g/	2gg\	2GG/	-ra.	-ra.	2G/	-ra	-ra.	2G/	-ra	-ra.	2g/	-ra.	-ra.	.	2g\	2g\
*v	*v	*	*	*	*	*	*	*	*	*	*	*	*	*	*	*	*	*	*
==	==	==	==	==	==	==	==	==	==	==	==	==	==	==	==	==	==	==
*-	*-	*-	*-	*-	*-	*-	*-	*-	*-	*-	*-	*-	*-	*-	*-	*-	*-	*-
!!!system-decoration: [(bras)][vox][(str)]<klav>
!!!RDF**kern: < = below
!!!RDF**kern: > = above
!!!filter-modern: shed -e "s/^(\d+[\/\\]right)/$1yy/I" | shed -e "s/TX(.*):t=P:/tx$1:t=P:/LG" | shed -k -e "s/([^a-gA-Gn#X-])[<>]/$1/g" | sic -sq | modori -m | autostem -r | tie -s | humtr -p | shed -e "s/yy//"
!!!ENC: Andrzej Kubiczek
!!!END: 2020-07-26
!!!EED: Marta Chmielewska
!!!EEV: 2022-03-03
!!!ENC-modern: Andrzej Kubiczek
!!!END-modern: 2023-07-19
